symbols/web/unarchive/materialsymbolssharp/unarchive_wght600gradN25_24px.svg

<svg xmlns="http://www.w3.org/2000/svg" height="24" width="24"><path d="M2.75 21.25V5.625L5.225 2.7h13.55l2.475 2.925V21.25ZM5.575 6.2h12.85l-.825-.975H6.4Zm-.3 12.525h13.45V8.075H5.275Zm5.65-1.25h2.15V13.3l1.55 1.525 1.5-1.475L12 9.225 7.875 13.35l1.5 1.475 1.55-1.525Zm-5.65 1.25V8.075v10.65Z"/></svg>

<svg xmlns="http://www.w3.org/2000/svg" height="24" width="24"><path d="M2.75 21.25V5.625L5.225 2.7H18.775L21.25 5.625V21.25ZM5.575 6.2H18.425L17.6 5.225H6.4ZM5.275 18.725H18.725V8.075H5.275ZM10.925 17.475H13.075V13.3L14.625 14.825L16.125 13.35L12 9.225L7.875 13.35L9.375 14.825L10.925 13.3ZM5.275 18.725V8.075V18.725Z"/></svg>
